dist/img/svg/media__item__logo--1--mob.svg

<svg width="111" height="18" viewBox="0 0 111 18" fill="none" xmlns="http://www.w3.org/2000/svg">
<g clip-path="url(#clip0_7214_14899)">
<path d="M0 0V17.3793H17.3793V0H0ZM6.67526 13.502L13.5067 6.67313V13.502H6.67526ZM3.8726 10.8196V3.87727H10.8177L3.8726 10.8196Z" fill="#2A2A2A"/>
</g>
<g clip-path="url(#clip1_7214_14899)">
<path d="M22.3398 0.33098H22.0295V0.641325V16.7559V17.0663H22.3398H25.5721H25.8824V16.7559V11.0473H27.644C29.5773 11.0473 31.1427 10.5835 32.2299 9.67381C33.3251 8.75745 33.8957 7.42134 33.8957 5.76682V5.67876V5.67851C33.8944 4.00225 33.3167 2.64944 32.2097 1.72174C31.1106 0.800637 29.5283 0.33098 27.5741 0.33098H22.3398ZM41.4562 6.6608H39.13V3.56751H45.8358H46.1461V3.25717V0.641325V0.33098H45.8358H35.6107H35.3004V0.641325V16.7559V17.0663H35.6107H41.3966C43.289 17.0663 44.8224 16.6087 45.8876 15.7102C46.9605 14.8052 47.5188 13.4861 47.5188 11.8532V11.7574C47.5188 10.1434 46.9812 8.85155 45.9227 7.97002C44.8732 7.09596 43.3541 6.6608 41.4562 6.6608ZM52.7764 6.71223V0.641325V0.33098H52.466H49.2338H48.9235V0.641325V16.7559V17.0663H49.2338H52.466H52.7764V16.7559V10.4883L58.1005 16.9532L58.1936 17.0663H58.34H62.1913H62.8529L62.4299 16.5575L55.5976 8.34006L62.1022 0.823689L62.5465 0.310261H61.8675H58.3193H58.1751L58.0821 0.420538L52.7764 6.71223ZM30.1127 5.76682C30.1127 6.54174 29.8867 7.08596 29.4906 7.44138C29.0887 7.80201 28.4625 8.01275 27.5741 8.01275H25.8824V3.52089H27.5741C28.5117 3.52089 29.1352 3.7102 29.5233 4.04509C29.9016 4.3715 30.1127 4.88624 30.1127 5.67617V5.76682ZM39.1295 13.8997L39.1227 9.6979H41.1972C42.1369 9.6979 42.7747 9.88702 43.1741 10.2135C43.561 10.5298 43.7747 11.0173 43.7747 11.7418V11.8299C43.7747 12.5574 43.5623 13.0544 43.1863 13.3768C42.8013 13.7069 42.1926 13.8997 41.3086 13.8997H39.1295Z" fill="#2A2A2A" stroke="#2A2A2A" stroke-width="0.62069"/>
</g>
<g clip-path="url(#clip2_7214_14899)">
<path d="M22.9648 0.33098H22.6545V0.641325V16.7559V17.0663H22.9648H26.1971H26.5074V16.7559V11.0473H28.269C30.2023 11.0473 31.7677 10.5835 32.8549 9.67381C33.9501 8.75745 34.5207 7.42134 34.5207 5.76682V5.67876V5.67851C34.5194 4.00225 33.9417 2.64944 32.8347 1.72174C31.7356 0.800637 30.1533 0.33098 28.1991 0.33098H22.9648ZM42.0812 6.6608H39.755V3.56751H46.4608H46.7711V3.25717V0.641325V0.33098H46.4608H36.2357H35.9254V0.641325V16.7559V17.0663H36.2357H42.0216C43.914 17.0663 45.4474 16.6087 46.5126 15.7102C47.5855 14.8052 48.1438 13.4861 48.1438 11.8532V11.7574C48.1438 10.1434 47.6062 8.85155 46.5477 7.97002C45.4982 7.09596 43.9791 6.6608 42.0812 6.6608ZM53.4014 6.71223V0.641325V0.33098H53.091H49.8588H49.5485V0.641325V16.7559V17.0663H49.8588H53.091H53.4014V16.7559V10.4883L58.7255 16.9532L58.8186 17.0663H58.965H62.8163H63.4779L63.0549 16.5575L56.2226 8.34006L62.7272 0.823689L63.1715 0.310261H62.4925H58.9443H58.8001L58.7071 0.420538L53.4014 6.71223ZM30.7377 5.76682C30.7377 6.54174 30.5117 7.08596 30.1156 7.44138C29.7137 7.80201 29.0875 8.01275 28.1991 8.01275H26.5074V3.52089H28.1991C29.1367 3.52089 29.7602 3.7102 30.1483 4.04509C30.5266 4.3715 30.7377 4.88624 30.7377 5.67617V5.76682ZM39.7545 13.8997L39.7477 9.6979H41.8222C42.7619 9.6979 43.3997 9.88702 43.7991 10.2135C44.186 10.5298 44.3997 11.0173 44.3997 11.7418V11.8299C44.3997 12.5574 44.1873 13.0544 43.8113 13.3768C43.4263 13.7069 42.8176 13.8997 41.9336 13.8997H39.7545Z" fill="#2A2A2A" stroke="#2A2A2A" stroke-width="0.62069"/>
</g>
<g clip-path="url(#clip3_7214_14899)">
<path d="M23.5859 0.33098H23.2756V0.641325V16.7559V17.0663H23.5859H26.8182H27.1285V16.7559V11.0473H28.8901C30.8234 11.0473 32.3888 10.5835 33.476 9.67381C34.5712 8.75745 35.1418 7.42134 35.1418 5.76682V5.67876V5.67851C35.1405 4.00225 34.5628 2.64944 33.4558 1.72174C32.3566 0.800637 30.7744 0.33098 28.8202 0.33098H23.5859ZM42.7023 6.6608H40.3761V3.56751H47.0819H47.3922V3.25717V0.641325V0.33098H47.0819H36.8568H36.5465V0.641325V16.7559V17.0663H36.8568H42.6427C44.5351 17.0663 46.0685 16.6087 47.1337 15.7102C48.2066 14.8052 48.7649 13.4861 48.7649 11.8532V11.7574C48.7649 10.1434 48.2273 8.85155 47.1688 7.97002C46.1193 7.09596 44.6002 6.6608 42.7023 6.6608ZM54.0225 6.71223V0.641325V0.33098H53.7121H50.4799H50.1696V0.641325V16.7559V17.0663H50.4799H53.7121H54.0225V16.7559V10.4883L59.3466 16.9532L59.4397 17.0663H59.5861H63.4374H64.099L63.676 16.5575L56.8437 8.34006L63.3483 0.823689L63.7926 0.310261H63.1136H59.5654H59.4212L59.3282 0.420538L54.0225 6.71223ZM31.3588 5.76682C31.3588 6.54174 31.1328 7.08596 30.7367 7.44138C30.3348 7.80201 29.7086 8.01275 28.8202 8.01275H27.1285V3.52089H28.8202C29.7578 3.52089 30.3813 3.7102 30.7694 4.04509C31.1477 4.3715 31.3588 4.88624 31.3588 5.67617V5.76682ZM40.3756 13.8997L40.3688 9.6979H42.4433C43.383 9.6979 44.0208 9.88702 44.4202 10.2135C44.8071 10.5298 45.0207 11.0173 45.0207 11.7418V11.8299C45.0207 12.5574 44.8084 13.0544 44.4324 13.3768C44.0474 13.7069 43.4387 13.8997 42.5547 13.8997H40.3756Z" fill="#2A2A2A" stroke="#2A2A2A" stroke-width="0.62069"/>
</g>
<g clip-path="url(#clip4_7214_14899)">
<path d="M70.7578 0H77.3605C82.1145 0 84.3264 2.1157 84.3264 5.80889V5.90801C84.3264 9.55385 81.8739 11.5232 77.5822 11.5232H75.7145V17.3793H70.7624V0H70.7578ZM77.1389 8.11819C78.7424 8.11819 79.5913 7.36259 79.5913 5.93158V5.83245C79.5913 4.34956 78.7188 3.74507 77.1624 3.74507H75.7051V8.11819H77.1389Z" fill="#2A2A2A"/>
<path d="M86.2773 4.59934H90.6734V7.15641C91.4848 5.23978 92.8355 4.4034 94.826 4.42725V8.53291C92.1482 8.46125 90.6734 9.29763 90.6734 11.3625V17.4612H86.2773V4.59934Z" fill="#2A2A2A"/>
<path d="M96.207 11.293V11.0943C96.207 6.91587 99.281 4.27881 103.26 4.27881C107.215 4.27881 110.265 6.83831 110.265 10.9683V11.167C110.265 15.3939 107.191 17.934 103.236 17.934C99.281 17.934 96.207 15.4958 96.207 11.293ZM105.792 11.2155V11.0167C105.792 8.82573 104.93 7.609 103.26 7.609C101.614 7.609 100.704 8.77724 100.704 10.9683V11.167C100.704 13.4065 101.566 14.6232 103.26 14.6232C104.906 14.6232 105.792 13.3823 105.792 11.2155Z" fill="#2A2A2A"/>
</g>
<defs>
<clipPath id="clip0_7214_14899">
<rect width="17.3793" height="17.3793" fill="white"/>
</clipPath>
<clipPath id="clip1_7214_14899">
<rect width="13.0345" height="17.3793" fill="white" transform="translate(21.7227)"/>
</clipPath>
<clipPath id="clip2_7214_14899">
<rect width="13.6552" height="17.3793" fill="white" transform="translate(35.3789)"/>
</clipPath>
<clipPath id="clip3_7214_14899">
<rect width="15.5172" height="17.3793" fill="white" transform="translate(49.6523)"/>
</clipPath>
<clipPath id="clip4_7214_14899">
<rect width="39.7241" height="18" fill="white" transform="translate(70.7578)"/>
</clipPath>
</defs>
</svg>

<svg width="111" height="18" viewBox="0 0 111 18" fill="none" xmlns="http://www.w3.org/2000/svg"><g clip-path="url(#clip0_7214_14899)"><path d="M0 0v17.38h17.38V0H0zm6.675 13.502l6.832-6.829v6.829H6.675zM3.873 10.82V3.877h6.945L3.873 10.82z" fill="#2A2A2A"/></g><g clip-path="url(#clip1_7214_14899)"><path d="M22.34.331h-.31v16.735h3.851v-6.019h1.762c1.933 0 3.499-.463 4.586-1.373 1.095-.917 1.666-2.253 1.666-3.907v-.088 0c-.002-1.677-.58-3.03-1.686-3.957C31.11.8 29.528.33 27.574.33H22.34zm19.116 6.33H39.13V3.568h7.016V.33H35.301v16.736h6.095c1.892 0 3.425-.457 4.49-1.356 1.074-.905 1.632-2.224 1.632-3.857v-.096c0-1.614-.538-2.905-1.596-3.787-1.05-.874-2.569-1.31-4.467-1.31zm11.32.051V.331h-3.852v16.735h3.851v-6.578l5.324 6.465.094.113h4.659l-.423-.508-6.832-8.218L62.102.824l.445-.514h-4.372l-.093.11-5.306 6.292zm-22.663-.945c0 .775-.226 1.319-.622 1.674-.402.361-1.029.572-1.917.572h-1.692V3.52h1.692c.938 0 1.561.19 1.95.524.378.327.589.841.589 1.631v.09zM39.13 13.9l-.007-4.202h2.074c.94 0 1.578.189 1.977.515.387.317.6.804.6 1.529v.088c0 .727-.212 1.224-.588 1.547-.385.33-.993.523-1.877.523h-2.18z" fill="#2A2A2A" stroke="#2A2A2A" stroke-width=".621"/></g><g clip-path="url(#clip2_7214_14899)"><path d="M22.965.331h-.31v16.735h3.851v-6.019h1.762c1.933 0 3.499-.463 4.586-1.373 1.095-.917 1.666-2.253 1.666-3.907v-.088 0c-.002-1.677-.58-3.03-1.686-3.957C31.735.8 30.153.33 28.199.33h-5.234zm19.116 6.33h-2.326V3.568h7.016V.33H35.926v16.736h6.095c1.892 0 3.425-.457 4.49-1.356 1.074-.905 1.632-2.224 1.632-3.857v-.096c0-1.614-.538-2.905-1.596-3.787-1.05-.874-2.569-1.31-4.467-1.31zm11.32.051V.331H49.55v16.735h3.85v-6.578l5.324 6.465.094.113h4.659l-.423-.508-6.832-8.218L62.727.824l.445-.514H58.8l-.093.11-5.306 6.292zm-22.663-.945c0 .775-.226 1.319-.622 1.674-.402.361-1.029.572-1.917.572h-1.692V3.52H28.2c.938 0 1.561.19 1.95.524.378.327.589.841.589 1.631v.09zm9.017 8.133l-.007-4.202h2.074c.94 0 1.578.189 1.977.515.387.317.6.804.6 1.529v.088c0 .727-.212 1.224-.588 1.547-.385.33-.993.523-1.877.523h-2.18z" fill="#2A2A2A" stroke="#2A2A2A" stroke-width=".621"/></g><g clip-path="url(#clip3_7214_14899)"><path d="M23.586.331h-.31v16.735h3.852v-6.019h1.762c1.933 0 3.499-.463 4.586-1.373 1.095-.917 1.666-2.253 1.666-3.907v-.088 0c-.002-1.677-.58-3.03-1.686-3.957C32.356.8 30.774.33 28.82.33h-5.234zm19.116 6.33h-2.326V3.568h7.016V.33H36.547v16.736h6.095c1.892 0 3.425-.457 4.49-1.356 1.074-.905 1.632-2.224 1.632-3.857v-.096c0-1.614-.538-2.905-1.596-3.787-1.05-.874-2.569-1.31-4.467-1.31zm11.32.051V.331H50.17v16.735h3.852v-6.578l5.325 6.465.093.113h4.659l-.423-.508-6.832-8.218L63.348.824l.445-.514H59.42l-.093.11-5.306 6.292zM31.36 5.767c0 .775-.226 1.319-.622 1.674-.402.361-1.028.572-1.917.572h-1.692V3.52h1.692c.938 0 1.561.19 1.95.524.378.327.589.841.589 1.631v.09zm9.017 8.133l-.007-4.202h2.074c.94 0 1.578.189 1.977.515.387.317.6.804.6 1.529v.088c0 .727-.212 1.224-.588 1.547-.385.33-.993.523-1.877.523h-2.18z" fill="#2A2A2A" stroke="#2A2A2A" stroke-width=".621"/></g><g clip-path="url(#clip4_7214_14899)" fill="#2A2A2A"><path d="M70.758 0h6.603c4.754 0 6.965 2.116 6.965 5.809v.099c0 3.646-2.452 5.615-6.744 5.615h-1.867v5.856h-4.953V0h-.004zm6.38 8.118c1.604 0 2.453-.755 2.453-2.186v-.1c0-1.482-.872-2.087-2.429-2.087h-1.457v4.373h1.434zM86.277 4.6h4.396v2.556c.812-1.916 2.162-2.753 4.153-2.729v4.106c-2.678-.072-4.153.765-4.153 2.83v6.098h-4.396V4.6zm9.93 6.693v-.199c0-4.178 3.074-6.815 7.053-6.815 3.955 0 7.005 2.56 7.005 6.69v.198c0 4.227-3.074 6.767-7.029 6.767s-7.029-2.438-7.029-6.641zm9.585-.077v-.2c0-2.19-.862-3.407-2.532-3.407-1.646 0-2.556 1.168-2.556 3.36v.198c0 2.24.862 3.456 2.556 3.456 1.646 0 2.532-1.24 2.532-3.407z"/></g><defs><clipPath id="clip0_7214_14899"><path fill="#fff" d="M0 0h17.379v17.379H0z"/></clipPath><clipPath id="clip1_7214_14899"><path fill="#fff" transform="translate(21.723)" d="M0 0h13.034v17.379H0z"/></clipPath><clipPath id="clip2_7214_14899"><path fill="#fff" transform="translate(35.379)" d="M0 0h13.655v17.379H0z"/></clipPath><clipPath id="clip3_7214_14899"><path fill="#fff" transform="translate(49.652)" d="M0 0h15.517v17.379H0z"/></clipPath><clipPath id="clip4_7214_14899"><path fill="#fff" transform="translate(70.758)" d="M0 0h39.724v18H0z"/></clipPath></defs></svg>
